X:3
T:Spelmans-sk{\aa}l
R:s{\aa}ng
H:Nedtecknad av Carl Erik S\"odling. FMK Upprop 26b:005
H:Jfr #1
Z:id:hn-sang-3
M:C
L:1/8
Q:1/4=80
K:Dm
D>D D>D D>D A2 | G>B A>G F2 E || E | E>F G>E F>G A>A |
w:Mun-sj\"or l\"o-ser p{\aa} sin pung, fr\"oj-det e-der fr\"an-der, {\aa} ge en hur-tig spe-le-man f\"or
w:Jung-frun
D>F E>D ^C2 D2 | D2 A2 A>G E>F | D4 z2 z2 ||
w:han har n\"o-te str\"ang-e. H{\aa}, ho, h\"ar \"a lust {\aa} ro.
W:Tack {\aa} tack ska munsj\"or (jungfrun) ha f\"or sin sk\"ank {\aa} g{\aa}va,
W:En vacker f\"astm\"o (f\"astman) ska han (hon) ha s{\aa}vida jag f{\aa}r r{\aa}da,
W:H{\aa}, ho, h\"ar \"a lust {\aa} ro.

